X:1027
M:C
L:1/8
Q:1/2=100
K:G
g>de>d g>de>d| e<g``d>B   BA  A2 |g>de>d g>de<g|G<G`B>A ({A}G2)G2 |
g>de>d g>de>d| d<B``B>b   A2  A>B|d>eg>d e>de<g|G<GTB>A  {A}G2 G2|]

